packages/icons/24x24/bill.svg

<?xml version="1.0" encoding="UTF-8"?>
<svg class="customer-ui__icon" width="24px" height="24px" viewBox="0 0 24 24" fill="#000000" version="1.1" xmlns="http://www.w3.org/2000/svg" xmlns:xlink="http://www.w3.org/1999/xlink">
    <title>Bill</title>
    <defs>
        <path d="M17.9997745,2 L18.1760473,2.00509269 C19.6925284,2.09295962 20.9068149,3.30724616 20.9946818,4.82372721 L20.9997745,5 L20.9997745,17 L20.9930468,17.1166211 C20.9352817,17.6139598 20.5126104,18 19.9997745,18 C19.4869387,18 19.0642674,17.6139598 19.0065023,17.1166211 L18.9997745,17 L18.9997745,5 L18.9930468,4.88337887 C18.9397252,4.42429701 18.5754775,4.06004937 18.1163957,4.00672773 L17.9997745,4 L5.99977453,4 L5.8831534,4.00672773 C5.42407154,4.06004937 5.0598239,4.42429701 5.00650226,4.88337887 L4.99977453,5 L4.99977453,19.404 L7.60082476,18.1422924 L7.72250045,18.0928613 C7.92913911,18.024346 8.15271465,18.0251714 8.35884177,18.0952106 L8.48014915,18.1455388 L12.0017745,19.885 L15.5601343,18.1438972 L15.6816203,18.0940232 C15.8879933,18.0247538 16.1115558,18.0247538 16.3179287,18.0940232 L16.4394147,18.1438972 L20.4394147,20.101826 L20.541203,20.15914 C20.930096,20.408863 21.0971159,20.8961586 20.9431772,21.3319363 L20.8979485,21.4396402 L20.8406345,21.5414285 C20.5909116,21.9303215 20.1036159,22.0973414 19.6678382,21.9434026 L19.5601343,21.898174 L15.9997745,20.155 L12.4394147,21.898174 L12.3174092,21.9482224 C12.1101483,22.0176637 11.8856161,22.0172461 11.6786149,21.9470343 L11.5567964,21.8965324 L8.03277453,20.155 L4.4361208,21.8997788 L4.33048901,21.9440153 C3.73035687,22.1569136 3.08112084,21.7522464 3.00681672,21.120932 L2.99977453,21 L2.99977453,5 L3.00486722,4.82372721 C3.09273415,3.30724616 4.30702069,2.09295962 5.82350174,2.00509269 L5.99977453,2 L17.9997745,2 Z M12,14 C12.5522847,14 13,14.4477153 13,15 C13,15.5128358 12.6139598,15.9355072 12.1166211,15.9932723 L12,16 L8,16 C7.44771525,16 7,15.5522847 7,15 C7,14.4871642 7.38604019,14.0644928 7.88337887,14.0067277 L8,14 L12,14 Z M16,14 C16.5522847,14 17,14.4477153 17,15 C17,15.5522847 16.5522847,16 16,16 C15.4477153,16 15,15.5522847 15,15 C15,14.4477153 15.4477153,14 16,14 Z M12,10 C12.5522847,10 13,10.4477153 13,11 C13,11.5128358 12.6139598,11.9355072 12.1166211,11.9932723 L12,12 L8,12 C7.44771525,12 7,11.5522847 7,11 C7,10.4871642 7.38604019,10.0644928 7.88337887,10.0067277 L8,10 L12,10 Z M16,10 C16.5522847,10 17,10.4477153 17,11 C17,11.5522847 16.5522847,12 16,12 C15.4477153,12 15,11.5522847 15,11 C15,10.4477153 15.4477153,10 16,10 Z M12,6 C12.5522847,6 13,6.44771525 13,7 C13,7.51283584 12.6139598,7.93550716 12.1166211,7.99327227 L12,8 L8,8 C7.44771525,8 7,7.55228475 7,7 C7,6.48716416 7.38604019,6.06449284 7.88337887,6.00672773 L8,6 L12,6 Z M16,6 C16.5522847,6 17,6.44771525 17,7 C17,7.55228475 16.5522847,8 16,8 C15.4477153,8 15,7.55228475 15,7 C15,6.44771525 15.4477153,6 16,6 Z" id="path-1"></path>
    </defs>
    <g id="Icons-/-24x24-/-Bill" stroke="none" stroke-width="1" fill="none" fill-rule="evenodd">
        <rect id="base" fill-opacity="0" fill="#FFFFFF" x="0" y="0" width="24" height="24"></rect>
        <mask id="mask-2" fill="white">
            <use xlink:href="#path-1"></use>
        </mask>
        <g fill-rule="nonzero"></g>
        <rect fill="inherit" mask="url(#mask-2)" x="0" y="0" width="24" height="24"></rect>
    </g>
</svg>

<svg class="prefix__customer-ui__icon" width="24" height="24" xmlns="http://www.w3.org/2000/svg" xmlns:xlink="http://www.w3.org/1999/xlink"><defs><path d="M18 2l.176.005a3 3 0 012.819 2.819L21 5v12l-.007.117a1 1 0 01-1.986 0L19 17V5l-.007-.117a1 1 0 00-.877-.876L18 4H6l-.117.007a1 1 0 00-.876.876L5 5v14.404l2.6-1.262.123-.05a1 1 0 01.636.003l.121.05 3.522 1.74 3.558-1.741.122-.05a1 1 0 01.636 0l.121.05 4 1.958.102.057a1 1 0 01.402 1.173l-.045.108-.057.101a1 1 0 01-1.173.402l-.108-.045L16 20.155l-3.56 1.743-.123.05a1 1 0 01-.638-.001l-.122-.05-3.524-1.742L4.436 21.9l-.106.044a1 1 0 01-1.323-.823L3 21V5l.005-.176a3 3 0 012.819-2.819L6 2h12zm-6 12a1 1 0 01.117 1.993L12 16H8a1 1 0 01-.117-1.993L8 14h4zm4 0a1 1 0 110 2 1 1 0 010-2zm-4-4a1 1 0 01.117 1.993L12 12H8a1 1 0 01-.117-1.993L8 10h4zm4 0a1 1 0 110 2 1 1 0 010-2zm-4-4a1 1 0 01.117 1.993L12 8H8a1 1 0 01-.117-1.993L8 6h4zm4 0a1 1 0 110 2 1 1 0 010-2z" id="prefix__a"/></defs><g fill-rule="evenodd"><path fill="none" d="M0 0h24v24H0z"/><mask id="prefix__b" fill="#fff"><use xlink:href="#prefix__a"/></mask><path fill="inherit" mask="url(#prefix__b)" d="M0 0h24v24H0z"/></g></svg>
